X: 96
T: Su ku
L: 1/8
M: 2/4
K: G
d d e d [I:setbarnb 1]| 
c BA2 | 
d2E G | 
A4 | 
A d B d | 
A B A G | 
A G A E | 
D4 | 
A B A/ B/ A/ G/ | 
E G/ G/D2 | 
e g e/ g/ e/ d/ | 
c d/ e/ d B | 
AA2B | 
d2E G | 
A4 | 
G A G E | 
D4 |]

@@@ Tune index: 8970
